src/components/Icon/assets/inbox.svg

<svg xmlns="http://www.w3.org/2000/svg" width="24" height="24" viewBox="0 0 24 24">
    <path fill="#65676A" fill-rule="evenodd" d="M20 7v5h-5c0 1.657-1.343 3-3 3s-3-1.343-3-3H4V7h16zm.5-2h-17C2.673 5 2 5.673 2 6.5v11c0 .827.673 1.5 1.5 1.5h17c.827 0 1.5-.673 1.5-1.5v-11c0-.827-.673-1.5-1.5-1.5z"/>
</svg>

<svg width="24" height="24" viewBox="0 0 24 24" fill="none" xmlns="http://www.w3.org/2000/svg">
<path fill-rule="evenodd" clip-rule="evenodd" d="M20 7V12H15C15 13.657 13.657 15 12 15C10.343 15 9 13.657 9 12H4V7H20ZM20.5 5H3.5C2.673 5 2 5.673 2 6.5V17.5C2 18.327 2.673 19 3.5 19H20.5C21.327 19 22 18.327 22 17.5V6.5C22 5.673 21.327 5 20.5 5V5Z" fill="#65676A"/>
</svg>
